svg/fluentui-system-icons/ic_fluent_text_case_lowercase_24_filled.svg

<svg width="24" height="24" viewBox="0 0 24 24" fill="none" xmlns="http://www.w3.org/2000/svg">
<path d="M15 4C15 3.44772 14.5523 3 14 3C13.4477 3 13 3.44772 13 4V19.25C13 19.8023 13.4477 20.25 14 20.25C14.5214 20.25 14.9496 19.851 14.9959 19.3416C15.6138 19.7596 16.3375 20 17.1111 20C19.3816 20 21.2222 17.9293 21.2222 15.375C21.2222 12.8207 19.3816 10.75 17.1111 10.75C16.3393 10.75 15.6171 10.9893 15 11.4056V4ZM17.1111 18C16.1601 18 15 17.0527 15 15.375C15 13.6973 16.1601 12.75 17.1111 12.75C18.0621 12.75 19.2222 13.6973 19.2222 15.375C19.2222 17.0527 18.0621 18 17.1111 18ZM11 19.2604V13.7604L10.9954 13.55L10.9953 13.5444C10.9525 12.5827 10.6203 11.7809 10.0188 11.2072C9.41878 10.6349 8.57486 10.3126 7.54966 10.2616L7.25864 10.2516L7.25465 10.2515C6.09684 10.2302 5.14111 10.4384 4.4235 10.9416C3.97131 11.2587 3.86179 11.8823 4.17888 12.3345C4.49598 12.7867 5.1196 12.8962 5.57178 12.5791C5.898 12.3504 6.50405 12.2121 7.45034 12.2591C8.03535 12.2882 8.40902 12.4314 8.63899 12.6546C8.81388 12.8244 8.93035 13.0648 8.97644 13.4026C8.10256 13.21 7.23568 13.1638 6.37959 13.2677C5.34693 13.3929 4.50035 13.7938 3.91035 14.4079C3.31906 15.0234 3 15.8382 3 16.7604C3 18.8599 4.52954 20.2604 6.5 20.2604C7.30589 20.2604 8.15302 20.0157 9.04352 19.5529C9.16867 19.9625 9.54939 20.2604 10 20.2604H10.0084L10.127 20.2524L10.1354 20.2513C10.6237 20.185 11 19.7668 11 19.2604ZM5 16.7967C5 16.3779 5.13209 16.0442 5.38341 15.7967C5.63858 15.5454 6.04054 15.3598 6.62041 15.2895C7.34939 15.201 8.0997 15.2606 8.87728 15.4742L8.999 15.5105V17.282L8.86197 17.3755C7.89677 18.0129 7.10855 18.2967 6.5 18.2967C6.03388 18.2967 5.66333 18.1508 5.41052 17.9041C5.15867 17.6583 5 17.2894 5 16.7967Z" fill="#212121"/>
</svg>

<svg xmlns="http://www.w3.org/2000/svg" width="24" height="24"><path d="M15 4a1 1 0 1 0-2 0v15.25a1 1 0 0 0 1.996.092A3.756 3.756 0 0 0 17.11 20c2.27 0 4.111-2.07 4.111-4.625 0-2.554-1.84-4.625-4.11-4.625-.773 0-1.495.24-2.112.656V4Zm2.111 14c-.95 0-2.111-.947-2.111-2.625s1.16-2.625 2.111-2.625c.951 0 2.111.947 2.111 2.625S18.062 18 17.112 18ZM11 19.26v-5.5l-.005-.21v-.006c-.042-.961-.375-1.763-.976-2.337-.6-.572-1.444-.894-2.47-.945l-.29-.01h-.004c-1.158-.022-2.114.186-2.832.69a1 1 0 1 0 1.149 1.637c.326-.229.932-.367 1.878-.32.585.03.959.172 1.189.396.175.17.291.41.337.748a7.69 7.69 0 0 0-2.596-.135c-1.033.125-1.88.526-2.47 1.14-.59.615-.91 1.43-.91 2.352 0 2.1 1.53 3.5 3.5 3.5.806 0 1.653-.244 2.544-.707a1 1 0 0 0 .956.707h.008l.119-.008h.008A1 1 0 0 0 11 19.26Zm-6-2.463c0-.42.132-.753.383-1 .256-.252.658-.437 1.237-.508a5.805 5.805 0 0 1 2.257.185l.122.037v1.771l-.137.093c-.965.638-1.753.922-2.362.922-.466 0-.837-.146-1.09-.393-.251-.246-.41-.615-.41-1.107Z"/></svg>
